svg/Frame-1261155979.svg

<svg width="49" height="74" viewBox="0 0 49 74" fill="none" xmlns="http://www.w3.org/2000/svg"><rect width="49" height="74" fill="#DADADA"/><mask id="path-2-inside-1_2483_15959" fill="white"><path d="M1241.2 94.2002L-198.801 94.2001L-198.801 -14.7999L1241.2 -14.7998L1241.2 94.2002Z"/></mask><path d="M1241.2 94.2002L-198.801 94.2001L-198.801 -14.7999L1241.2 -14.7998L1241.2 94.2002Z" fill="white"/><path d="M22.1832 63.0322V70.4122H21.3312V69.9202H15.0672V70.4122H14.2152V63.0322H17.4672C17.5632 62.6482 17.6472 62.2402 17.6952 61.8202H12.8832V60.9802H15.9432C15.7632 60.5122 15.5592 60.0682 15.3192 59.6602L16.1592 59.3482C16.3992 59.8042 16.6272 60.3442 16.8312 60.9802H19.4952C19.7712 60.4522 20.0112 59.9002 20.2152 59.3122L21.0672 59.6122C20.8752 60.1282 20.6712 60.5842 20.4432 60.9802H23.5152V61.8202H18.6072C18.5352 62.2402 18.4632 62.6482 18.3672 63.0322H22.1832ZM15.0672 69.1402H21.3312V67.8562H15.0672V69.1402ZM15.0672 67.0882H21.3312V65.8402H15.0672V67.0882ZM15.0672 65.0722H21.3312V63.8242H15.0672V65.0722ZM33.9072 62.0242V67.7002H33.0432V62.8642H27.3072V67.7242H26.4432V62.0242H29.4792C29.5992 61.6042 29.6832 61.1722 29.7432 60.7162H24.9192V59.9002H35.4792V60.7162H30.6552C30.5832 61.1722 30.4992 61.6162 30.3792 62.0242H33.9072ZM30.9912 67.7242C32.5392 68.2522 33.9552 68.8762 35.2272 69.6202L34.6992 70.4362C33.3312 69.5842 31.9392 68.9122 30.5112 68.4322L30.9912 67.7242ZM29.7552 63.5842H30.6432V65.4922C30.5952 66.8122 30.1632 67.8562 29.3712 68.6482C28.6032 69.3802 27.3432 69.9442 25.5912 70.3522L25.0992 69.5842C26.8392 69.2002 28.0512 68.6962 28.7352 68.0602C29.3832 67.4002 29.7192 66.5482 29.7552 65.4922V63.5842Z" fill="black"/><rect x="0.0992187" y="0.100195" width="48.2" height="48.2" rx="10.1" fill="#F6F6F6"/><rect x="0.0992187" y="0.100195" width="48.2" height="48.2" rx="10.1" stroke="#D4D4D8" stroke-width="0.2"/><g filter="url(#filter0_dii_2483_15959)"><path d="M11.1992 14.9766C11.1992 12.9055 12.8782 11.2266 14.9492 11.2266H19.4492C21.5203 11.2266 23.1992 12.9055 23.1992 14.9766V22.4766C23.1992 24.5476 21.5203 26.2266 19.4492 26.2266H14.9492C12.8782 26.2266 11.1992 24.5476 11.1992 22.4766V14.9766Z" fill="#919191"/></g><g filter="url(#filter1_iii_2483_15959)"><rect x="11.1992" y="29.2266" width="12" height="8" rx="2" fill="#D9D9D9"/></g><g filter="url(#filter2_iii_2483_15959)"><path d="M25.1992 28.9766C25.1992 26.9055 26.8782 25.2266 28.9492 25.2266H33.4492C35.5203 25.2266 37.1992 26.9055 37.1992 28.9766V33.4766C37.1992 35.5476 35.5203 37.2266 33.4492 37.2266H28.9492C26.8782 37.2266 25.1992 35.5476 25.1992 33.4766V28.9766Z" fill="#ECECEC"/></g><g filter="url(#filter3_ii_2483_15959)"><path d="M25.1992 17.2266C25.1992 13.9129 27.8855 11.2266 31.1992 11.2266C34.5129 11.2266 37.1992 13.9129 37.1992 17.2266C37.1992 20.5403 34.5129 23.2266 31.1992 23.2266C27.8855 23.2266 25.1992 20.5403 25.1992 17.2266Z" fill="#919191"/></g><defs><filter id="filter0_dii_2483_15959" x="10.7305" y="10.7578" width="14.4062" height="17.875" filterUnits="userSpaceOnUse" color-interpolation-filters="sRGB"><feFlood flood-opacity="0" result="BackgroundImageFix"/><feColorMatrix in="SourceAlpha" type="matrix" values="0 0 0 0 0 0 0 0 0 0 0 0 0 0 0 0 0 0 127 0" result="hardAlpha"/><feOffset dx="0.9375" dy="1.40625"/><feGaussianBlur stdDeviation="0.5"/><feComposite in2="hardAlpha" operator="out"/><feColorMatrix type="matrix" values="0 0 0 0 0.394602 0 0 0 0 0.394602 0 0 0 0 0.394602 0 0 0 0.08 0"/><feBlend mode="normal" in2="BackgroundImageFix" result="effect1_dropShadow_2483_15959"/><feBlend mode="normal" in="SourceGraphic" in2="effect1_dropShadow_2483_15959" result="shape"/><feColorMatrix in="SourceAlpha" type="matrix" values="0 0 0 0 0 0 0 0 0 0 0 0 0 0 0 0 0 0 127 0" result="hardAlpha"/><feOffset dx="0.5" dy="0.5"/><feGaussianBlur stdDeviation="0.5"/><feComposite in2="hardAlpha" operator="arithmetic" k2="-1" k3="1"/><feColorMatrix type="matrix" values="0 0 0 0 0.109684 0 0 0 0 0.0922738 0 0 0 0 0.0922738 0 0 0 0.1 0"/><feBlend mode="normal" in2="shape" result="effect2_innerShadow_2483_15959"/><feColorMatrix in="SourceAlpha" type="matrix" values="0 0 0 0 0 0 0 0 0 0 0 0 0 0 0 0 0 0 127 0" result="hardAlpha"/><feOffset dx="-0.46875" dy="-0.46875"/><feGaussianBlur stdDeviation="0.5"/><feComposite in2="hardAlpha" operator="arithmetic" k2="-1" k3="1"/><feColorMatrix type="matrix" values="0 0 0 0 0 0 0 0 0 0 0 0 0 0 0 0 0 0 0.05 0"/><feBlend mode="normal" in2="effect2_innerShadow_2483_15959" result="effect3_innerShadow_2483_15959"/></filter><filter id="filter1_iii_2483_15959" x="10.7305" y="28.7578" width="12.9375" height="8.9375" filterUnits="userSpaceOnUse" color-interpolation-filters="sRGB"><feFlood flood-opacity="0" result="BackgroundImageFix"/><feBlend mode="normal" in="SourceGraphic" in2="BackgroundImageFix" result="shape"/><feColorMatrix in="SourceAlpha" type="matrix" values="0 0 0 0 0 0 0 0 0 0 0 0 0 0 0 0 0 0 127 0" result="hardAlpha"/><feOffset dx="0.46875" dy="0.46875"/><feGaussianBlur stdDeviation="0.703125"/><feComposite in2="hardAlpha" operator="arithmetic" k2="-1" k3="1"/><feColorMatrix type="matrix" values="0 0 0 0 0.121569 0 0 0 0 0.121569 0 0 0 0 0.117647 0 0 0 0.05 0"/><feBlend mode="normal" in2="shape" result="effect1_innerShadow_2483_15959"/><feColorMatrix in="SourceAlpha" type="matrix" values="0 0 0 0 0 0 0 0 0 0 0 0 0 0 0 0 0 0 127 0" result="hardAlpha"/><feOffset dx="-0.46875" dy="-0.46875"/><feGaussianBlur stdDeviation="0.703125"/><feComposite in2="hardAlpha" operator="arithmetic" k2="-1" k3="1"/><feColorMatrix type="matrix" values="0 0 0 0 0.121569 0 0 0 0 0.121569 0 0 0 0 0.117647 0 0 0 0.05 0"/><feBlend mode="normal" in2="effect1_innerShadow_2483_15959" result="effect2_innerShadow_2483_15959"/><feColorMatrix in="SourceAlpha" type="matrix" values="0 0 0 0 0 0 0 0 0 0 0 0 0 0 0 0 0 0 127 0" result="hardAlpha"/><feOffset dx="0.46875" dy="0.46875"/><feGaussianBlur stdDeviation="0.9375"/><feComposite in2="hardAlpha" operator="arithmetic" k2="-1" k3="1"/><feColorMatrix type="matrix" values="0 0 0 0 0.121569 0 0 0 0 0.121569 0 0 0 0 0.117647 0 0 0 0.05 0"/><feBlend mode="normal" in2="effect2_innerShadow_2483_15959" result="effect3_innerShadow_2483_15959"/></filter><filter id="filter2_iii_2483_15959" x="24.7305" y="24.7578" width="12.9375" height="12.9375" filterUnits="userSpaceOnUse" color-interpolation-filters="sRGB"><feFlood flood-opacity="0" result="BackgroundImageFix"/><feBlend mode="normal" in="SourceGraphic" in2="BackgroundImageFix" result="shape"/><feColorMatrix in="SourceAlpha" type="matrix" values="0 0 0 0 0 0 0 0 0 0 0 0 0 0 0 0 0 0 127 0" result="hardAlpha"/><feOffset dx="0.46875" dy="0.46875"/><feGaussianBlur stdDeviation="0.703125"/><feComposite in2="hardAlpha" operator="arithmetic" k2="-1" k3="1"/><feColorMatrix type="matrix" values="0 0 0 0 0.121569 0 0 0 0 0.121569 0 0 0 0 0.117647 0 0 0 0.05 0"/><feBlend mode="normal" in2="shape" result="effect1_innerShadow_2483_15959"/><feColorMatrix in="SourceAlpha" type="matrix" values="0 0 0 0 0 0 0 0 0 0 0 0 0 0 0 0 0 0 127 0" result="hardAlpha"/><feOffset dx="-0.46875" dy="-0.46875"/><feGaussianBlur stdDeviation="0.703125"/><feComposite in2="hardAlpha" operator="arithmetic" k2="-1" k3="1"/><feColorMatrix type="matrix" values="0 0 0 0 0.121569 0 0 0 0 0.121569 0 0 0 0 0.117647 0 0 0 0.05 0"/><feBlend mode="normal" in2="effect1_innerShadow_2483_15959" result="effect2_innerShadow_2483_15959"/><feColorMatrix in="SourceAlpha" type="matrix" values="0 0 0 0 0 0 0 0 0 0 0 0 0 0 0 0 0 0 127 0" result="hardAlpha"/><feOffset dx="0.46875" dy="0.46875"/><feGaussianBlur stdDeviation="0.9375"/><feComposite in2="hardAlpha" operator="arithmetic" k2="-1" k3="1"/><feColorMatrix type="matrix" values="0 0 0 0 0.121569 0 0 0 0 0.121569 0 0 0 0 0.117647 0 0 0 0.05 0"/><feBlend mode="normal" in2="effect2_innerShadow_2483_15959" result="effect3_innerShadow_2483_15959"/></filter><filter id="filter3_ii_2483_15959" x="24.2617" y="10.2891" width="13.4062" height="13.4062" filterUnits="userSpaceOnUse" color-interpolation-filters="sRGB"><feFlood flood-opacity="0" result="BackgroundImageFix"/><feBlend mode="normal" in="SourceGraphic" in2="BackgroundImageFix" result="shape"/><feColorMatrix in="SourceAlpha" type="matrix" values="0 0 0 0 0 0 0 0 0 0 0 0 0 0 0 0 0 0 127 0" result="hardAlpha"/><feOffset dx="0.46875" dy="0.46875"/><feGaussianBlur stdDeviation="0.46875"/><feComposite in2="hardAlpha" operator="arithmetic" k2="-1" k3="1"/><feColorMatrix type="matrix" values="0 0 0 0 0.478431 0 0 0 0 0.47451 0 0 0 0 0.47451 0 0 0 0.15 0"/><feBlend mode="normal" in2="shape" result="effect1_innerShadow_2483_15959"/><feColorMatrix in="SourceAlpha" type="matrix" values="0 0 0 0 0 0 0 0 0 0 0 0 0 0 0 0 0 0 127 0" result="hardAlpha"/><feOffset dx="-0.9375" dy="-0.9375"/><feGaussianBlur stdDeviation="0.46875"/><feComposite in2="hardAlpha" operator="arithmetic" k2="-1" k3="1"/><feColorMatrix type="matrix" values="0 0 0 0 0.576337 0 0 0 0 0.574111 0 0 0 0 0.574111 0 0 0 0.15 0"/><feBlend mode="normal" in2="effect1_innerShadow_2483_15959" result="effect2_innerShadow_2483_15959"/></filter></defs></svg>

<svg fill="none" viewBox="0 0 49 74"><path fill="#DADADA" d="M0 0h49v74H0z"/><path fill="white" d="M1241.2 94.2H-198.801v-109H1241.2z"/><path fill="black" d="M22.183 63.032v7.38h-.852v-.492h-6.264v.492h-.852v-7.38h3.252c.096-.384.18-.792.228-1.212h-4.812v-.84h3.06a9 9 0 0 0-.624-1.32l.84-.312c.24.456.468.996.672 1.632h2.664c.276-.528.516-1.08.72-1.668l.852.3a9 9 0 0 1-.624 1.368h3.072v.84h-4.908c-.072.42-.144.828-.24 1.212zm-7.116 6.108h6.264v-1.284h-6.264zm0-2.052h6.264V65.84h-6.264zm0-2.016h6.264v-1.248h-6.264zm18.84-3.048V67.7h-.864v-4.836h-5.736v4.86h-.864v-5.7h3.036c.12-.42.204-.852.264-1.308H24.92V59.9h10.56v.816h-4.824c-.072.456-.156.9-.276 1.308zm-2.916 5.7c1.548.528 2.964 1.152 4.236 1.896l-.528.816c-1.368-.852-2.76-1.524-4.188-2.004zm-1.236-4.14h.888v1.908c-.048 1.32-.48 2.364-1.272 3.156-.768.732-2.028 1.296-3.78 1.704l-.492-.768c1.74-.384 2.952-.888 3.636-1.524.648-.66.984-1.512 1.02-2.568z"/><rect width="48.2" height="48.2" x=".099" y=".1" fill="#F6F6F6" rx="10.1"/><rect width="48.2" height="48.2" x=".099" y=".1" stroke="#D4D4D8" stroke-width=".2" rx="10.1"/><g filter="url(#a)"><path fill="#919191" d="M11.2 14.977a3.75 3.75 0 0 1 3.75-3.75h4.5a3.75 3.75 0 0 1 3.75 3.75v7.5a3.75 3.75 0 0 1-3.75 3.75h-4.5a3.75 3.75 0 0 1-3.75-3.75z"/></g><g filter="url(#b)"><rect width="12" height="8" x="11.199" y="29.227" fill="#D9D9D9" rx="2"/></g><g filter="url(#c)"><path fill="#ECECEC" d="M25.2 28.977a3.75 3.75 0 0 1 3.75-3.75h4.5a3.75 3.75 0 0 1 3.75 3.75v4.5a3.75 3.75 0 0 1-3.75 3.75h-4.5a3.75 3.75 0 0 1-3.75-3.75z"/></g><g filter="url(#d)"><path fill="#919191" d="M25.2 17.227a6 6 0 1 1 12 0 6 6 0 0 1-12 0"/></g><defs><filter id="a" width="14.406" height="17.875" x="10.73" y="10.758" color-interpolation-filters="sRGB" filterUnits="userSpaceOnUse"><feFlood flood-opacity="0" result="BackgroundImageFix"/><feColorMatrix in="SourceAlpha" result="hardAlpha" type="matrix" values="0 0 0 0 0 0 0 0 0 0 0 0 0 0 0 0 0 0 127 0"/><feOffset dx=".938" dy="1.406"/><feGaussianBlur stdDeviation=".5"/><feComposite in2="hardAlpha" operator="out"/><feColorMatrix type="matrix" values="0 0 0 0 0.394602 0 0 0 0 0.394602 0 0 0 0 0.394602 0 0 0 0.08 0"/><feBlend in2="BackgroundImageFix" mode="normal" result="effect1_dropShadow_2483_15959"/><feBlend in="SourceGraphic" in2="effect1_dropShadow_2483_15959" mode="normal" result="shape"/><feColorMatrix in="SourceAlpha" result="hardAlpha" type="matrix" values="0 0 0 0 0 0 0 0 0 0 0 0 0 0 0 0 0 0 127 0"/><feOffset dx=".5" dy=".5"/><feGaussianBlur stdDeviation=".5"/><feComposite in2="hardAlpha" k2="-1" k3="1" operator="arithmetic"/><feColorMatrix type="matrix" values="0 0 0 0 0.109684 0 0 0 0 0.0922738 0 0 0 0 0.0922738 0 0 0 0.1 0"/><feBlend in2="shape" mode="normal" result="effect2_innerShadow_2483_15959"/><feColorMatrix in="SourceAlpha" result="hardAlpha" type="matrix" values="0 0 0 0 0 0 0 0 0 0 0 0 0 0 0 0 0 0 127 0"/><feOffset dx="-.469" dy="-.469"/><feGaussianBlur stdDeviation=".5"/><feComposite in2="hardAlpha" k2="-1" k3="1" operator="arithmetic"/><feColorMatrix type="matrix" values="0 0 0 0 0 0 0 0 0 0 0 0 0 0 0 0 0 0 0.05 0"/><feBlend in2="effect2_innerShadow_2483_15959" mode="normal" result="effect3_innerShadow_2483_15959"/></filter><filter id="b" width="12.938" height="8.938" x="10.73" y="28.758" color-interpolation-filters="sRGB" filterUnits="userSpaceOnUse"><feFlood flood-opacity="0" result="BackgroundImageFix"/><feBlend in="SourceGraphic" in2="BackgroundImageFix" mode="normal" result="shape"/><feColorMatrix in="SourceAlpha" result="hardAlpha" type="matrix" values="0 0 0 0 0 0 0 0 0 0 0 0 0 0 0 0 0 0 127 0"/><feOffset dx=".469" dy=".469"/><feGaussianBlur stdDeviation=".703"/><feComposite in2="hardAlpha" k2="-1" k3="1" operator="arithmetic"/><feColorMatrix type="matrix" values="0 0 0 0 0.121569 0 0 0 0 0.121569 0 0 0 0 0.117647 0 0 0 0.05 0"/><feBlend in2="shape" mode="normal" result="effect1_innerShadow_2483_15959"/><feColorMatrix in="SourceAlpha" result="hardAlpha" type="matrix" values="0 0 0 0 0 0 0 0 0 0 0 0 0 0 0 0 0 0 127 0"/><feOffset dx="-.469" dy="-.469"/><feGaussianBlur stdDeviation=".703"/><feComposite in2="hardAlpha" k2="-1" k3="1" operator="arithmetic"/><feColorMatrix type="matrix" values="0 0 0 0 0.121569 0 0 0 0 0.121569 0 0 0 0 0.117647 0 0 0 0.05 0"/><feBlend in2="effect1_innerShadow_2483_15959" mode="normal" result="effect2_innerShadow_2483_15959"/><feColorMatrix in="SourceAlpha" result="hardAlpha" type="matrix" values="0 0 0 0 0 0 0 0 0 0 0 0 0 0 0 0 0 0 127 0"/><feOffset dx=".469" dy=".469"/><feGaussianBlur stdDeviation=".938"/><feComposite in2="hardAlpha" k2="-1" k3="1" operator="arithmetic"/><feColorMatrix type="matrix" values="0 0 0 0 0.121569 0 0 0 0 0.121569 0 0 0 0 0.117647 0 0 0 0.05 0"/><feBlend in2="effect2_innerShadow_2483_15959" mode="normal" result="effect3_innerShadow_2483_15959"/></filter><filter id="c" width="12.938" height="12.938" x="24.73" y="24.758" color-interpolation-filters="sRGB" filterUnits="userSpaceOnUse"><feFlood flood-opacity="0" result="BackgroundImageFix"/><feBlend in="SourceGraphic" in2="BackgroundImageFix" mode="normal" result="shape"/><feColorMatrix in="SourceAlpha" result="hardAlpha" type="matrix" values="0 0 0 0 0 0 0 0 0 0 0 0 0 0 0 0 0 0 127 0"/><feOffset dx=".469" dy=".469"/><feGaussianBlur stdDeviation=".703"/><feComposite in2="hardAlpha" k2="-1" k3="1" operator="arithmetic"/><feColorMatrix type="matrix" values="0 0 0 0 0.121569 0 0 0 0 0.121569 0 0 0 0 0.117647 0 0 0 0.05 0"/><feBlend in2="shape" mode="normal" result="effect1_innerShadow_2483_15959"/><feColorMatrix in="SourceAlpha" result="hardAlpha" type="matrix" values="0 0 0 0 0 0 0 0 0 0 0 0 0 0 0 0 0 0 127 0"/><feOffset dx="-.469" dy="-.469"/><feGaussianBlur stdDeviation=".703"/><feComposite in2="hardAlpha" k2="-1" k3="1" operator="arithmetic"/><feColorMatrix type="matrix" values="0 0 0 0 0.121569 0 0 0 0 0.121569 0 0 0 0 0.117647 0 0 0 0.05 0"/><feBlend in2="effect1_innerShadow_2483_15959" mode="normal" result="effect2_innerShadow_2483_15959"/><feColorMatrix in="SourceAlpha" result="hardAlpha" type="matrix" values="0 0 0 0 0 0 0 0 0 0 0 0 0 0 0 0 0 0 127 0"/><feOffset dx=".469" dy=".469"/><feGaussianBlur stdDeviation=".938"/><feComposite in2="hardAlpha" k2="-1" k3="1" operator="arithmetic"/><feColorMatrix type="matrix" values="0 0 0 0 0.121569 0 0 0 0 0.121569 0 0 0 0 0.117647 0 0 0 0.05 0"/><feBlend in2="effect2_innerShadow_2483_15959" mode="normal" result="effect3_innerShadow_2483_15959"/></filter><filter id="d" width="13.406" height="13.406" x="24.262" y="10.289" color-interpolation-filters="sRGB" filterUnits="userSpaceOnUse"><feFlood flood-opacity="0" result="BackgroundImageFix"/><feBlend in="SourceGraphic" in2="BackgroundImageFix" mode="normal" result="shape"/><feColorMatrix in="SourceAlpha" result="hardAlpha" type="matrix" values="0 0 0 0 0 0 0 0 0 0 0 0 0 0 0 0 0 0 127 0"/><feOffset dx=".469" dy=".469"/><feGaussianBlur stdDeviation=".469"/><feComposite in2="hardAlpha" k2="-1" k3="1" operator="arithmetic"/><feColorMatrix type="matrix" values="0 0 0 0 0.478431 0 0 0 0 0.47451 0 0 0 0 0.47451 0 0 0 0.15 0"/><feBlend in2="shape" mode="normal" result="effect1_innerShadow_2483_15959"/><feColorMatrix in="SourceAlpha" result="hardAlpha" type="matrix" values="0 0 0 0 0 0 0 0 0 0 0 0 0 0 0 0 0 0 127 0"/><feOffset dx="-.938" dy="-.938"/><feGaussianBlur stdDeviation=".469"/><feComposite in2="hardAlpha" k2="-1" k3="1" operator="arithmetic"/><feColorMatrix type="matrix" values="0 0 0 0 0.576337 0 0 0 0 0.574111 0 0 0 0 0.574111 0 0 0 0.15 0"/><feBlend in2="effect1_innerShadow_2483_15959" mode="normal" result="effect2_innerShadow_2483_15959"/></filter></defs></svg>
